!!!OTL: Der lustige Nagelschmied Willkomm, willkomm, Nagelschmied,
!!!ARE: Europa, Mitteleuropa, Lothringen, Halsdorf ( Kr. Diedenhofen )
!!!SCT: D0046
!!!YEM: Copyright 1995, estate of Helmut Schaffrath.
**kern
*ICvox
*Ivox
*M2/4
*k[f#]
*G:
{8g
8g
8b
8b
=1
8g
8g
4a}
=2
{8b
8g
8dd
16dd
16dd
=3
8b
8a
8g
16r}
{16g
=4
8g
8g
8b
8b
=5
8g
8g
4a}
=6
{8b
8g
8dd
16dd
16dd
=7
2b}
==
!!!AGN: Staende - Lied
!!!ONB: ESAC (Essen Associative Code) Database: DVA
!!!AMT: simple duple
!!!AIN: vox
!!!EED: Helmut Schaffrath
!!!EEV: 1.0
*-
